packages/foundations/assets/icons/functional/images/buildings/train_station.svg

<svg xmlns="http://www.w3.org/2000/svg" width="32" height="32" fill="none"><path fill="#1A1C1F" fill-rule="evenodd" d="M8.585 3.132a1.2 1.2 0 0 0-.451.379l-.161.231-.014 6.636-.014 6.635H5.357c-2.463 0-2.598.005-2.792.105a.98.98 0 0 0-.536.71c-.04.196-.054 1.823-.044 5.347.015 5.019.016 5.067.126 5.278.062.118.214.286.338.374l.227.16h10.648l.227-.16c.124-.088.276-.256.338-.374.107-.206.112-.304.138-3.013.026-2.77.028-2.802.144-2.989a1.1 1.1 0 0 1 .327-.306c.201-.113.267-.118 1.502-.118s1.301.005 1.502.118c.115.065.263.203.327.306.116.187.118.219.144 2.989.026 2.709.031 2.807.138 3.013.062.118.214.286.338.374l.227.16h10.648l.227-.16c.124-.088.276-.256.338-.374.11-.212.111-.242.111-5.44 0-5.121-.002-5.231-.107-5.436a1.4 1.4 0 0 0-.311-.374l-.205-.163-2.689-.015L24 17.01v-6.586c0-7.147.014-6.791-.283-7.108-.302-.324.252-.301-7.639-.317l-7.202-.014zM21.973 16v10.987h-1.967l-.018-2.307c-.019-2.248-.022-2.315-.141-2.639-.331-.899-1.073-1.62-1.951-1.896-.351-.111-.475-.118-1.896-.118s-1.545.007-1.896.118c-.878.276-1.62.997-1.951 1.896-.119.324-.122.391-.141 2.639l-.018 2.307h-1.967V5.013h11.946zm-6.636-7.947a4.08 4.08 0 0 0-3.211 2.934c-.132.479-.132 1.547 0 2.026a4.16 4.16 0 0 0 1.39 2.113c1.301 1.044 3.114 1.154 4.606.28.391-.23 1.054-.893 1.284-1.284.964-1.645.729-3.631-.584-4.944-.511-.512-1.095-.847-1.835-1.053-.334-.094-1.3-.136-1.65-.072m1.516 2.153c.383.192.75.557.941.933.139.274.153.35.153.861 0 .524-.011.58-.168.881-.176.337-.576.752-.869.904a2.8 2.8 0 0 1-.542.166c-.866.181-1.736-.26-2.164-1.098-.137-.266-.151-.344-.151-.853s.014-.587.151-.853a2.1 2.1 0 0 1 1.16-1.036c.382-.138 1.118-.091 1.489.095M8 22.987v4H4v-8h4zm20 0v4h-4v-8h4z"/></svg>

<svg width="32" height="32" viewBox="0 0 32 32" fill="none" xmlns="http://www.w3.org/2000/svg"><path d="M8.585 3.132 C 8.394 3.229,8.239 3.359,8.134 3.511 L 7.973 3.742 7.959 10.378 L 7.945 17.013 5.357 17.013 C 2.894 17.013,2.759 17.018,2.565 17.118 C 2.275 17.266,2.097 17.501,2.029 17.828 C 1.989 18.024,1.975 19.651,1.985 23.175 C 2.000 28.194,2.001 28.242,2.111 28.453 C 2.173 28.571,2.325 28.739,2.449 28.827 L 2.676 28.987 8.000 28.987 L 13.324 28.987 13.551 28.827 C 13.675 28.739,13.827 28.571,13.889 28.453 C 13.996 28.247,14.001 28.149,14.027 25.440 C 14.053 22.670,14.055 22.638,14.171 22.451 C 14.235 22.348,14.383 22.210,14.498 22.145 C 14.699 22.032,14.765 22.027,16.000 22.027 C 17.235 22.027,17.301 22.032,17.502 22.145 C 17.617 22.210,17.765 22.348,17.829 22.451 C 17.945 22.638,17.947 22.670,17.973 25.440 C 17.999 28.149,18.004 28.247,18.111 28.453 C 18.173 28.571,18.325 28.739,18.449 28.827 L 18.676 28.987 24.000 28.987 L 29.324 28.987 29.551 28.827 C 29.675 28.739,29.827 28.571,29.889 28.453 C 29.999 28.241,30.000 28.211,30.000 23.013 C 30.000 17.892,29.998 17.782,29.893 17.577 C 29.835 17.461,29.694 17.293,29.582 17.203 L 29.377 17.040 26.688 17.025 L 24.000 17.010 24.000 10.424 C 24.000 3.277,24.014 3.633,23.717 3.316 C 23.415 2.992,23.969 3.015,16.078 2.999 L 8.876 2.985 8.585 3.132 M21.973 16.000 L 21.973 26.987 20.990 26.987 L 20.006 26.987 19.988 24.680 C 19.969 22.432,19.966 22.365,19.847 22.041 C 19.516 21.142,18.774 20.421,17.896 20.145 C 17.545 20.034,17.421 20.027,16.000 20.027 C 14.579 20.027,14.455 20.034,14.104 20.145 C 13.226 20.421,12.484 21.142,12.153 22.041 C 12.034 22.365,12.031 22.432,12.012 24.680 L 11.994 26.987 11.010 26.987 L 10.027 26.987 10.027 16.000 L 10.027 5.013 16.000 5.013 L 21.973 5.013 21.973 16.000 M15.337 8.053 C 13.790 8.333,12.542 9.474,12.126 10.987 C 11.994 11.466,11.994 12.534,12.126 13.013 C 12.350 13.831,12.853 14.595,13.516 15.126 C 14.817 16.170,16.630 16.280,18.122 15.406 C 18.513 15.176,19.176 14.513,19.406 14.122 C 20.370 12.477,20.135 10.491,18.822 9.178 C 18.311 8.666,17.727 8.331,16.987 8.125 C 16.653 8.031,15.687 7.989,15.337 8.053 M16.853 10.206 C 17.236 10.398,17.603 10.763,17.794 11.139 C 17.933 11.413,17.947 11.489,17.947 12.000 C 17.947 12.524,17.936 12.580,17.779 12.881 C 17.603 13.218,17.203 13.633,16.910 13.785 C 16.815 13.834,16.571 13.909,16.368 13.951 C 15.502 14.132,14.632 13.691,14.204 12.853 C 14.067 12.587,14.053 12.509,14.053 12.000 C 14.053 11.491,14.067 11.413,14.204 11.147 C 14.455 10.656,14.861 10.294,15.364 10.111 C 15.746 9.973,16.482 10.020,16.853 10.206 M8.000 22.987 L 8.000 26.987 6.000 26.987 L 4.000 26.987 4.000 22.987 L 4.000 18.987 6.000 18.987 L 8.000 18.987 8.000 22.987 M28.000 22.987 L 28.000 26.987 26.000 26.987 L 24.000 26.987 24.000 22.987 L 24.000 18.987 26.000 18.987 L 28.000 18.987 28.000 22.987 " fill="#1A1C1F" stroke="none" fill-rule="evenodd"></path></svg>
